packages/elvis-assets-icons/icons/svg/src/power_outage_map.svg

<svg width="24" height="24" viewBox="0 0 24 24" fill="none" xmlns="http://www.w3.org/2000/svg">
<g clip-path="url(#clip0)">
<path d="M20.0623 2.27966L14.729 0.146328C14.2534 -0.0487761 13.7201 -0.0487761 13.2446 0.146328L7.32456 2.48889C7.56456 2.42189 7.24505 2.50153 7.32456 2.48889C7.32456 2.48889 7.40406 2.4975 7.32456 2.48486L1.82233 0.315218C1.61992 0.233102 1.40033 0.202325 1.18314 0.22563C0.96595 0.248935 0.757895 0.325597 0.577509 0.448788C0.397122 0.571979 0.250006 0.737873 0.149264 0.931693C0.0485222 1.12551 -0.00271695 1.34124 0.000111019 1.55966V14.333C-0.000364812 14.7324 0.118759 15.1228 0.342137 15.4539C0.565514 15.785 0.882912 16.0417 1.25344 16.1908L6.58678 18.3241C7.06344 18.5136 7.59456 18.5136 8.07122 18.3241L10.6223 17.2841C10.704 17.2514 10.7785 17.203 10.8415 17.1415C10.9045 17.08 10.9547 17.0068 10.9894 16.9259C11.0241 16.845 11.0425 16.7581 11.0435 16.6701C11.0446 16.5821 11.0284 16.4947 10.9957 16.413C10.963 16.3313 10.9145 16.2568 10.8531 16.1938C10.7916 16.1308 10.7183 16.0806 10.6374 16.0459C10.5565 16.0112 10.4696 15.9929 10.3816 15.9918C10.2936 15.9907 10.2063 16.007 10.1246 16.0397L7.99122 16.9286V3.70551L8.06233 3.67522L13.3246 1.55077V7.33744C13.3246 7.51425 13.3948 7.68382 13.5198 7.80884C13.6448 7.93387 13.8144 8.00411 13.9912 8.00411C14.168 8.00411 14.3376 7.93387 14.4626 7.80884C14.5877 7.68382 14.6579 7.51425 14.6579 7.33744V1.55077L19.5646 3.51522C19.6895 3.56473 19.7968 3.65038 19.8728 3.76122C19.9488 3.87206 19.9901 4.00305 19.9912 4.13744V8.00411C19.9912 8.18092 20.0615 8.35049 20.1865 8.47551C20.3115 8.60054 20.4811 8.67077 20.6579 8.67077C20.8347 8.67077 21.0043 8.60054 21.1293 8.47551C21.2543 8.35049 21.3246 8.18092 21.3246 8.00411V4.13744C21.3255 3.73673 21.2056 3.34504 20.9804 3.01359C20.7552 2.68214 20.4352 2.42635 20.0623 2.27966ZM1.74233 14.9552C1.61835 14.9053 1.51223 14.8193 1.43773 14.7084C1.36323 14.5974 1.3238 14.4666 1.32456 14.333V1.55077L6.65789 3.67522V16.9019L1.74233 14.9552Z" fill="black"/>
<path d="M20.7886 14.4804L17.6092 14.5053L19.6783 6.85742L15.3381 12.9109L19.0979 16.6477L20.7886 14.4804Z" fill="#FFA000"/>
<path d="M20.9064 20.8813C21.0494 20.7418 21.0501 20.5121 20.908 20.3716L11.5838 11.1571C11.4468 11.0216 11.227 11.0193 11.0871 11.1519L10.7209 11.499C10.5742 11.638 10.5719 11.8709 10.716 12.0127L13.7503 14.9994L12.6448 16.6763L15.3381 16.8678L13.4513 24.0003L17.4804 18.7112L20.0317 21.2438C20.1701 21.3812 20.3932 21.3821 20.5327 21.2459L20.9064 20.8813Z" fill="#FFA000"/>
</g>
<defs>
<clipPath id="clip0">
<rect width="24" height="24" fill="white"/>
</clipPath>
</defs>
</svg>

<svg width="24" height="24" fill="none" xmlns="http://www.w3.org/2000/svg"><g clip-path="url(#clip0)"><path d="M20.062 2.28L14.73.146a1.955 1.955 0 00-1.484 0L7.325 2.49c.24-.067-.08.013 0 0 0 0 .08.009 0-.004L1.822.315A1.324 1.324 0 000 1.56v12.773a2 2 0 001.253 1.858l5.334 2.133a2.01 2.01 0 001.484 0l2.551-1.04a.67.67 0 10-.497-1.244l-2.134.889V3.706l.071-.03 5.263-2.125v5.786a.667.667 0 101.333 0V1.551l4.907 1.964a.676.676 0 01.426.622v3.867a.667.667 0 001.334 0V4.137a1.992 1.992 0 00-1.263-1.857zM1.742 14.955a.667.667 0 01-.417-.622V1.551l5.333 2.124v13.227l-4.916-1.947z" fill="#000"/><path d="M20.789 14.48l-3.18.025 2.07-7.648-4.34 6.054 3.759 3.737 1.69-2.168zM20.906 20.881a.357.357 0 00.002-.51l-9.324-9.214a.357.357 0 00-.497-.005l-.366.347a.357.357 0 00-.005.514l3.034 2.986-1.105 1.677 2.693.192L13.451 24l4.03-5.289 2.55 2.533a.357.357 0 00.502.002l.373-.365z" fill="#FFA000"/></g><defs><clipPath id="clip0"><path fill="#fff" d="M0 0h24v24H0z"/></clipPath></defs></svg>
